!!!COM: Gaspar van Weerbeke
!!!CDT: ~1450-~1517
!!!OPR: Missa Ave regina celorum
!!!OTL: Kyrie
!!!ONM: 1
!!!AGN: Mass
!!!SCT: Gas0101a
!!!SCA: Gas0101a
!!!voices: 4
**kern	**text	**kern	**text	**text	**kern	**text	**kern	**text
*part4	*part4	*part3	*part3	*part3	*part2	*part2	*part1	*part1
*staff4	*staff4	*staff3	*staff3	*staff3	*staff2	*staff2	*staff1	*staff1
*I"Bassus	*	*I"Tenor	*	*	*I"Altus	*	*I"Superius	*
*I'B	*	*I'T	*	*	*I'A	*	*I'S	*
*clefF4	*	*clefF4	*	*	*clefGv2	*	*clefGv2	*
*k[b-]	*	*k[b-]	*	*	*k[b-]	*	*k[b-]	*
*d:	*	*d:	*	*	*d:	*	*d:	*
*M3/2	*	*M3/2	*	*	*M3/2	*	*M3/2	*
*met(O)	*	*met(O)	*	*	*met(O)	*	*met(O)	*
=1	=1	=1	=1	=1	=1	=1	=1	=1
*	*	*	*	*	*col	*	*	*
1.r	.	1.r	.	.	[1.F	Ky-	1.F	Ky-
=2	=2	=2	=2	=2	=2	=2	=2	=2
1.r	.	1.r	.	.	2F]	.	4.A	-ri-
*	*	*	*	*	*Xcol	*	*	*
.	.	.	.	.	.	.	8B-y	.
.	.	.	.	.	4.E	-ri-	4.c	.
.	.	.	.	.	8C	.	8A	.
.	.	.	.	.	4D	.	4B-y	.
*	*	*	*	*	*lig	*	*	*
*	*	*	*	*	*col	*	*	*
.	.	.	.	.	[4E	-e	[4c	-e
=3	=3	=3	=3	=3	=3	=3	=3	=3
1.r	.	1.r	.	.	4E]	.	8c]L	.
.	.	.	.	.	.	.	8dJ	.
.	.	.	.	.	2C	.	2e	.
*	*	*	*	*	*Xcol	*	*	*
*	*	*	*	*	*Xlig	*	*	*
.	.	.	.	.	2D	.	4f	.
.	.	.	.	.	.	.	4d	.
.	.	.	.	.	4E	.	8cL	.
.	.	.	.	.	.	.	8B-yJ	.
=4	=4	=4	=4	=4	=4	=4	=4	=4
*	*	*	*	*edit	*	*	*	*edit
1FF	Ky-	1.F	A-	Ky-	2.F	.	2A	.
.	.	.	.	.	.	.	1a	e-
.	.	.	.	.	8EL	.	.	.
.	.	.	.	.	8DJ	.	.	.
4AA	.	.	.	.	2C	.	.	.
4BB-y	.	.	.	.	.	.	.	.
!!LO:LB:g=original
=5	=5	=5	=5	=5	=5	=5	=5	=5
2C	-ri-	4.E	.	-ri-	2c	.	4.g	.
.	.	8C	.	.	.	.	8f	.
4BB-y	.	4D	.	.	2r	.	4d	.
*	*	*lig	*	*	*	*	*	*
2C	-e-	2E	.	-e-	.	.	2c	.
.	.	.	.	.	4c	e-	.	.
*	*edit	*	*	*	*	*	*	*
4D	e-	[4D	.	.	4A	.	8fL	.
.	.	.	.	.	.	.	8eJ	.
=6	=6	=6	=6	=6	=6	=6	=6	=6
4BB-y	.	4D]	.	.	4B-y	.	8dL	.
*	*	*Xlig	*	*	*	*	*	*
.	.	.	.	.	.	.	8cJ	.
*	*	*	*	*	*	*edit	*	*
2C	-ley-	4E	.	-e-	2G	-ley-	2c	-ley-
.	.	4C	.	.	.	.	.	.
4D	.	2F	.	-ley-	4F	.	4Bni	.
2C	-son,	.	.	.	2G	-son,	2c	-son,
.	.	4E	.	.	.	.	.	.
=7	=7	=7	=7	=7	=7	=7	=7	=7
*	*	*col	*	*	*	*	*	*
4D	e-	2F	-ve	-son,	2r	.	4A	e-
4.D	.	.	.	.	.	.	4.B-y	-ley-
.	.	4r	.	.	4r	.	.	.
8CL	.	.	.	.	.	.	8AL	.
8BB-y	.	4F	re-	e-	4D	e-	8G	.
8AAJ	.	.	.	.	.	.	8FJ	.
*	*	*lig	*	*	*	*	*	*
4.GG	.	[2G	.	.	4E	.	2E	-son,
.	.	.	.	.	[4G	-ley-	.	.
8AA	.	.	.	.	.	.	.	.
=8	=8	=8	=8	=8	=8	=8	=8	=8
4BB-y	.	2G]	.	.	8G]L	.	2r	.
.	.	.	.	.	8F	.	.	.
1C	-ley-	.	.	.	8E	.	.	.
.	.	.	.	.	8DJ	.	.	.
.	.	1A	.	.	4.E	.	2r	.
*	*	*Xlig	*	*	*	*	*	*
*	*	*Xcol	*	*	*	*	*	*
.	.	.	.	.	8D	.	.	.
.	.	.	.	.	4E	.	4r	.
[4FF	-son,	.	.	.	4F	.	[4F	e-
!!LO:LB:g=original
=9	=9	=9	=9	=9	=9	=9	=9	=9
4FF]	.	1A	-gi-	-ley-	4.c	.	8F]L	.
.	.	.	.	.	.	.	8G	.
4.F	e-	.	.	.	.	.	8A	.
.	.	.	.	.	8B-y	.	8B-yJ	.
.	.	.	.	.	8AL	.	4c	.
8E	.	.	.	.	8GJ	.	.	.
4D	.	.	.	.	4F	.	4d	.
4C	.	2A	-na	.	4E	-son,	4e	.
4D	.	.	.	.	4r	.	4f	.
=10	=10	=10	=10	=10	=10	=10	=10	=10
4.E-X	.	4G	ce-	.	2C	e-	4g	.
.	.	4.B-y	-lo-	.	.	.	4.g	-ley-
8D	.	.	.	.	.	.	.	.
4BB-y	.	.	.	.	4D	-ley-	.	.
.	.	8AL	.	.	.	.	8fL	.
4.C	.	8G	.	.	4E	.	8e	.
.	.	8FJ	.	.	.	.	8dJ	.
.	.	2G	.	.	2C	-son,	2e	-son,
8BB-y	.	.	.	.	.	.	.	.
4C	.	.	.	.	.	.	.	.
=11	=11	=11	=11	=11	=11	=11	=11	=11
4.D	.	2F	-rum,	-son,	4r	.	4.f	e-
.	.	.	.	.	2F	e-	.	.
8C	.	.	.	.	.	.	8e	.
4AA	.	2r	.	.	.	.	4c	.
2BB-y	.	.	.	.	2G	.	4B-y	.
.	.	2r	.	.	.	.	4d	.
4AA	.	.	.	.	[4A	.	4c	.
=12	=12	=12	=12	=12	=12	=12	=12	=12
4.BB-y	.	2%3r	.	.	4A]	.	2B-y	.
.	.	.	.	.	4G	.	.	.
8AA	.	.	.	.	.	.	.	.
4FF	.	.	.	.	4A	.	4A	.
*	*	*	*	*	*	*Xedit	*	*
2GG	-ley-	.	.	.	4.B-y	-ley-	4G	.
.	.	.	.	.	.	.	4B-y	.
.	.	.	.	.	8A	.	.	.
[4FF	.	.	.	.	4F	.	4c	.
!!LO:LB:g=original
=13	=13	=13	=13	=13	=13	=13	=13	=13
4FF]	.	1.r	.	.	2G	.	4d	.
4EE	.	.	.	.	.	.	4e	.
2FF	.	.	.	.	4F	.	4c	.
.	.	.	.	.	4A	.	2f	-ley-
2C	-son,	.	.	.	2G	.	.	.
.	.	.	.	.	.	.	4e	.
=14	=14	=14	=14	=14	=14	=14	=14	=14
*	*	*	*	*	*	*edit	*	*
2D	e-	1F	a-	Ky-	4F	-son,	2f	-son,
.	.	.	.	.	2A	e-	.	.
2D	-ley-	.	.	.	.	.	2r	.
.	.	.	.	.	4B-y	.	.	.
2C	-son,	4.E	.	-ri-	4.c	.	2r	.
.	.	8C	.	.	8A	.	.	.
=15	=15	=15	=15	=15	=15	=15	=15	=15
2r	.	4D	.	.	4B-y	.	4f	e-
.	.	4E	.	.	4G	.	4g	.
2r	.	4C	.	.	4c	.	4e	.
.	.	2F	.	.	4A	.	4f	.
2C	e-	.	.	.	2G	.	2g	.
.	.	4E	.	.	.	.	.	.
=16	=16	=16	=16	=16	=16	=16	=16	=16
4.FF	.	1.F	-ve	-e	4.F	-ley-	2a	-ley-
8GG	.	.	.	.	8E	.	.	.
4AA	.	.	.	.	4C	.	4a	.
4.BB-y	.	.	.	.	4.D	.	4.f	.
8C	.	.	.	.	8E	.	8e	.
4D	.	.	.	.	4F	.	4d	.
!!LO:PB:g=original
=17	=17	=17	=17	=17	=17	=17	=17	=17
4AA	.	4r	.	.	4E	-son,	4c	.
4.BB-y	.	4F	do-	e-	4D	.	4.d	.
.	.	1G	-mi-	.	2r	.	.	.
8AAL	.	.	.	.	.	.	8cL	.
8GG	.	.	.	.	.	.	8B-y	.
8FFJ	.	.	.	.	.	.	8AJ	.
2EE-X	.	.	.	.	2E-X	e,	2B-y	.
=18	=18	=18	=18	=18	=18	=18	=18	=18
2FF	-ley-	1A	-na	.	4C	.	2A	-son,
.	.	.	.	.	2F	.	.	.
2FF	-son,	.	.	.	.	.	2r	.
.	.	.	.	.	4D	.	.	.
2r	.	4G	an-	.	2E-i	.	2c	e-
.	.	4A	-ge-	.	.	.	.	.
=19	=19	=19	=19	=19	=19	=19	=19	=19
4BB-y	e-	4B-y	-lo-	.	4D	.	4d	.
4C	.	4G	.	.	4C	.	4e	.
4AA	.	4A	.	.	4r	.	4f	.
4BB-y	.	4F	.	.	2B-y	e-	4d	.
2C	-ley-	2E	.	.	.	.	2e	-ley-
.	.	.	.	.	4A	.	.	.
=20	=20	=20	=20	=20	=20	=20	=20	=20
4BB-y	.	4.F	.	-ley-	4B-y	.	4d	.
*	*	*	*	*	*	*	*lig	*
4AA	.	.	.	.	2c	-ley-	2c	.
.	.	8G	.	.	.	.	.	.
2FF	.	4A	.	.	.	.	.	.
.	.	4F	.	.	4A	.	2f	.
*	*	*	*	*	*	*	*Xlig	*
2C	.	2G	.	.	2G	.	.	.
.	.	.	.	.	.	.	4e	.
=21	=21	=21	=21	=21	=21	=21	=21	=21
*	*	*	*	*	*^	*	*	*
*	*Xedit	*	*	*	*	*	*Xedit	*	*Xedit
0FFl	-son.	0Fl	-rum,	-son.	0A\l	0c/l	-son.	0fl	-son.
*	*	*	*	*	*v	*v	*	*	*
!!LO:LB:g=original
=22||	=22||	=22||	=22||	=22||	=22||	=22||	=22||	=22||
*M2/2	*	*M2/2	*	*	*M2/2	*	*M2/2	*
*met(C|)	*	*met(C|)	*	*	*met(C|)	*	*met(C|)	*
*	*Xedit	*lig	*	*	*	*	*	*
2.FF	Chri-	[1F	sal-	Chri-	1r	.	1r	.
4GG	.	.	.	.	.	.	.	.
=23	=23	=23	=23	=23	=23	=23	=23	=23
2AA	.	1F]	.	.	1r	.	1r	.
[2BB-y	.	.	.	.	.	.	.	.
=24	=24	=24	=24	=24	=24	=24	=24	=24
2BB-]	.	[1G	.	.	1r	.	1r	.
[2C	.	.	.	.	.	.	.	.
=25	=25	=25	=25	=25	=25	=25	=25	=25
4C]	.	1G]	.	.	1r	.	1r	.
*	*	*Xlig	*	*	*	*	*	*
4BB-y	.	.	.	.	.	.	.	.
2GG	.	.	.	.	.	.	.	.
=26	=26	=26	=26	=26	=26	=26	=26	=26
*	*	*lig	*	*	*	*Xedit	*	*Xedit
1FF	-ste,	[1A	-ve	.	2.F	Chri-	2.c	Chri-
.	.	.	.	.	4E	.	4d	.
=27	=27	=27	=27	=27	=27	=27	=27	=27
1r	.	1A]	.	.	2C	.	2e	.
.	.	.	.	.	2D	.	[2f	.
=28	=28	=28	=28	=28	=28	=28	=28	=28
*lig	*edit	*	*	*	*	*	*	*
[1BB-y	Chri-	[1B-y	.	.	2BB-y	-ste,	2f]	.
.	.	.	.	.	2r	.	[2g	.
!!LO:LB:g=original
=29	=29	=29	=29	=29	=29	=29	=29	=29
*	*	*	*	*	*	*edit	*	*
1BB-]	.	1B-]	.	.	2.D	Chri-	4g]	.
*	*	*Xlig	*	*	*	*	*	*
.	.	.	.	.	.	.	4f	.
.	.	.	.	.	.	.	2d	.
.	.	.	.	.	4E	.	.	.
=30	=30	=30	=30	=30	=30	=30	=30	=30
1FF	.	1A	.	.	2.F	.	1c	-ste
.	.	.	.	.	4E	.	.	.
=31	=31	=31	=31	=31	=31	=31	=31	=31
*	*	*lig	*	*	*	*	*	*
1C	.	1G	.	-ste	2C	-ste	2r	.
*Xlig	*	*	*	*	*	*	*	*
.	.	.	.	.	[2c	e-	2e	e-
=32	=32	=32	=32	=32	=32	=32	=32	=32
*	*	*	*	*	*	*	*lig	*
2FF	-ste	1A	.	.	2c]	.	2f	.
*lig	*	*Xlig	*	*	*	*	*	*
[2F	.	.	.	.	2A	.	[2a	.
=33	=33	=33	=33	=33	=33	=33	=33	=33
*	*	*lig	*	*	*	*	*	*
1F]	.	[1c	ra-	e-	2F	.	4a]	.
*	*	*	*	*	*	*	*Xlig	*
.	.	.	.	.	.	.	4f	.
*	*	*	*	*	*	*	*	*edit
.	.	.	.	.	2A	.	[2f	-ley-
=34	=34	=34	=34	=34	=34	=34	=34	=34
1C	.	1c_	.	.	1G	-ley-	2f]	.
*Xlig	*	*	*	*	*	*	*	*
.	.	.	.	.	.	.	2e	.
=35	=35	=35	=35	=35	=35	=35	=35	=35
2r	.	1c_	.	.	1F	-son,	2f	-son,
4.FF	e-	.	.	.	.	.	4r	.
*	*	*	*	*	*	*	*	*Xedit
.	.	.	.	.	.	.	[[4f	e-
8GG	.	.	.	.	.	.	.	.
!!LO:LB:g=original
=36	=36	=36	=36	=36	=36	=36	=36	=36
4.AA	.	1c]	.	.	2r	.	4f]	.
.	.	.	.	.	.	.	8eL	.
8BB-y	.	.	.	.	.	.	8dJ	.
*lig	*	*	*	*	*	*Xedit	*	*
2C	.	.	.	.	2G	e-	2e	.
=37	=37	=37	=37	=37	=37	=37	=37	=37
*	*	*	*	*	*lig	*	*	*
2D	.	[1B-y	.	.	2F	.	2d	.
*Xlig	*	*	*	*	*	*	*	*
[2E-X	-ley-	.	.	.	[2G	.	[2g	.
=38	=38	=38	=38	=38	=38	=38	=38	=38
4E-]	.	1B-]	.	.	4G]	.	4g]	.
*	*	*Xlig	*	*	*Xlig	*	*	*
8DL	.	.	.	.	4A	.	8fL	.
8CJ	.	.	.	.	.	.	8eJ	.
*	*	*	*	*	*	*edit	*	*edit
4.BB-y	.	.	.	.	4.B-y	-ley-	[2d	-ley-
8C	.	.	.	.	8A	.	.	.
=39	=39	=39	=39	=39	=39	=39	=39	=39
*	*	*lig	*	*	*	*	*	*
4.D	.	1A	-dix	-ley-	4.F	.	2d]	.
8E	.	.	.	.	8G	.	.	.
2F	.	.	.	.	4.A	.	4.c	.
.	.	.	.	.	8B-y	.	8d	.
=40	=40	=40	=40	=40	=40	=40	=40	=40
2C	-son,	[1G	.	.	2c	-son,	2e	-son,
4D	e-	.	.	.	2r	.	4f	e-
[4E	.	.	.	.	.	.	[4g	.
=41	=41	=41	=41	=41	=41	=41	=41	=41
8E]L	.	1G]	.	.	1c	e-	8g]L	.
*	*	*Xlig	*	*	*	*	*	*
8D	.	.	.	.	.	.	8f	.
8C	.	.	.	.	.	.	8e	.
8BB-yJ	.	.	.	.	.	.	8dJ	.
2C	-ley-	.	.	.	.	.	2e	-ley-
=42	=42	=42	=42	=42	=42	=42	=42	=42
*	*	*lig	*	*	*	*	*	*
2D	-son,	2F	san-	.	2.A	.	2f	-son,
4.AA	e-	2A	.	.	.	.	4r	.
*	*	*Xlig	*	*	*	*	*	*Xedit
.	.	.	.	.	8GL	.	[4c	e-
8BB-y	.	.	.	.	8FJ	.	.	.
!!LO:PB:g=original
=43	=43	=43	=43	=43	=43	=43	=43	=43
4C	.	4G	.	.	4E	.	4c]	.
4D	.	4F	.	.	2F	.	4B-y	.
2C	.	2G	.	.	.	.	[2c	.
.	.	.	.	.	4E	.	.	.
=44	=44	=44	=44	=44	=44	=44	=44	=44
*	*Xedit	*	*	*	*	*	*	*
*	*	*	*	*	*lig	*	*	*
1FF	-ley-	1F	-cta	-son,	1F	-ley-	2c]	.
.	.	.	.	.	.	.	2d	.
=45	=45	=45	=45	=45	=45	=45	=45	=45
*	*edit	*	*	*	*	*	*	*
*lig	*	*	*	*	*	*	*	*edit
1EE	-son,	1r	.	.	1G	.	1e	-ley-
*	*	*	*	*	*Xlig	*	*	*
=46	=46	=46	=46	=46	=46	=46	=46	=46
1FF	.	1r	.	.	2F	-son,	1c	-son,
*Xlig	*	*	*	*	*	*	*	*
.	.	.	.	.	[2A	e-	.	.
=47	=47	=47	=47	=47	=47	=47	=47	=47
1r	.	1r	.	.	2A]	.	2f	e-
.	.	.	.	.	2G	-ley-	4e	.
.	.	.	.	.	.	.	[4d	.
=48	=48	=48	=48	=48	=48	=48	=48	=48
1r	.	1r	.	.	4F	.	4d]	.
.	.	.	.	.	4E	.	2c	.
.	.	.	.	.	2D	.	.	.
.	.	.	.	.	.	.	4Bni	.
!!LO:LB:g=original
=49	=49	=49	=49	=49	=49	=49	=49	=49
*	*	*	*	*	*	*	*lig	*
2FF	Chri-	1F	ex	Chri-	2C	-son,	2c	-ley-
[2BB-y	.	.	.	.	2r	.	[2d	.
=50	=50	=50	=50	=50	=50	=50	=50	=50
*	*	*lig	*	*	*	*	*	*
1BB-]	.	1D	qua	.	1r	.	4d]	.
*	*	*	*	*	*	*	*Xlig	*
.	.	.	.	.	.	.	4e	.
.	.	.	.	.	.	.	2f	-son,
=51	=51	=51	=51	=51	=51	=51	=51	=51
2.C	.	[1E	.	.	2.G	Chri-	2r	.
.	.	.	.	.	.	.	[2g	Chri-
8BB-yL	.	.	.	.	4A	.	.	.
8AAJ	.	.	.	.	.	.	.	.
=52	=52	=52	=52	=52	=52	=52	=52	=52
*lig	*	*	*	*	*	*	*	*
2GG	.	2E]	.	.	2B-y	.	2g]	.
*	*	*Xlig	*	*	*	*	*	*
2FF	.	2F	.	.	2A	.	[2c	-ste
*Xlig	*	*	*	*	*	*	*	*
=53	=53	=53	=53	=53	=53	=53	=53	=53
1GG	-ste	1D	.	-ste	1G	-ste	2c]	.
.	.	.	.	.	.	.	2Bni	.
=54	=54	=54	=54	=54	=54	=54	=54	=54
*	*	*	*	*	*	*	*lig	*
*lig	*	*	*	*	*	*	*	*
2AA	.	2.C	mun-	e-	2E	e-	2c	e-
2FF	.	.	.	.	8FL	.	2A	.
*Xlig	*	*	*	*	*	*	*Xlig	*
.	.	.	.	.	8E	.	.	.
.	.	[4D	.	.	8D	.	.	.
.	.	.	.	.	8CJ	.	.	.
!!LO:LB:g=original
=55	=55	=55	=55	=55	=55	=55	=55	=55
4r	.	2D]	.	.	4.BB-y	-ley-	2B-y	.
4GG	e-	.	.	.	.	.	.	.
.	.	.	.	.	8AA	.	.	.
4.C	.	[2E	.	.	2C	-son,	4.G	.
8BB-y	.	.	.	.	.	.	8A	.
=56	=56	=56	=56	=56	=56	=56	=56	=56
4GG	.	4E]	.	.	4r	.	4B-y	.
4FF	.	2F	.	.	2c	e-	2A	.
2F	-ley-	.	.	.	.	.	.	.
.	.	4A	.	-ley-	[4c	-ley-	8GL	.
.	.	.	.	.	.	.	8FJ	.
=57	=57	=57	=57	=57	=57	=57	=57	=57
4C	.	4G	.	.	4c]	.	4E	.
4D	.	4F	.	.	4B-y	.	2F	-ley-
2C	-son,	2G	.	.	2c	-son,	.	.
.	.	.	.	.	.	.	4E	.
=58	=58	=58	=58	=58	=58	=58	=58	=58
*lig	*	*	*	*	*	*	*	*
1FF	Chri-	1F	-do	-son,	4.A	Chri-	2F	-son,
.	.	.	.	.	8B-y	.	.	.
.	.	.	.	.	4c	.	2r	.
.	.	.	.	.	[4d	.	.	.
=59	=59	=59	=59	=59	=59	=59	=59	=59
1GG	.	1r	.	.	8d]L	.	1r	.
*Xlig	*	*	*	*	*	*	*	*
.	.	.	.	.	8c	.	.	.
.	.	.	.	.	8B-y	.	.	.
.	.	.	.	.	8AJ	.	.	.
.	.	.	.	.	2B-y	.	.	.
=60	=60	=60	=60	=60	=60	=60	=60	=60
*lig	*	*	*	*	*	*	*	*
1AA	-ste	1r	.	.	2A	-ste	4.c	Chri-
.	.	.	.	.	.	.	8d	.
.	.	.	.	.	2r	.	4e	.
.	.	.	.	.	.	.	[4f	.
!!LO:LB:g=original
=61	=61	=61	=61	=61	=61	=61	=61	=61
1BB-y	.	1r	.	.	1r	.	8f]L	.
*Xlig	*	*	*	*	*	*	*	*
.	.	.	.	.	.	.	8e	.
.	.	.	.	.	.	.	8d	.
.	.	.	.	.	.	.	8cJ	.
.	.	.	.	.	.	.	2d	-ste
=62	=62	=62	=62	=62	=62	=62	=62	=62
*	*	*lig	*	*	*	*	*	*
4.AA	e-	1F	lux	e-	4.A	e-	4.c	e-
8FF	.	.	.	.	8G	.	8A	.
4AA	.	.	.	.	8FL	.	4c	.
.	.	.	.	.	8EJ	.	.	.
[4BB-y	.	.	.	.	4D	.	[4d	.
=63	=63	=63	=63	=63	=63	=63	=63	=63
8BB-]L	.	1G	.	.	4F	-ley-	8d]L	.
*	*	*Xlig	*	*	*	*	*	*
8GGJ	.	.	.	.	.	.	8cJ	.
4.C	.	.	.	.	4E	.	4.e	.
.	.	.	.	.	2C	-son,	.	.
8D	.	.	.	.	.	.	8f	.
4E	.	.	.	.	.	.	4g	.
=64	=64	=64	=64	=64	=64	=64	=64	=64
*	*	*lig	*	*	*	*	*	*
4D	.	1A	est	.	2r	.	4f	.
4.F	.	.	.	.	.	.	8eL	.
.	.	.	.	.	.	.	8dJ	.
.	.	.	.	.	4F	e-	2c	-ley-
8E	.	.	.	.	.	.	.	.
4C	.	.	.	.	4E	.	.	.
=65	=65	=65	=65	=65	=65	=65	=65	=65
*	*	*	*	*	*	*	*lig	*
4BB-y	.	1B-y	.	.	4D	.	1d	-son,
*	*	*Xlig	*	*	*	*	*	*
2D	-ley-	.	.	.	4F	-ley-	.	.
.	.	.	.	.	2BB-y	-son,	.	.
4E	.	.	.	.	.	.	.	.
=66	=66	=66	=66	=66	=66	=66	=66	=66
*	*	*	*	*Xedit	*	*	*	*
*	*	*lig	*	*	*	*	*	*
1F	-son,	[1A	or-	-ley-	1r	.	1c	.
*	*	*	*	*	*	*	*Xlig	*
!!LO:PB:g=original
=67	=67	=67	=67	=67	=67	=67	=67	=67
2r	.	1A]	.	.	4.F	e-	2r	.
.	.	.	.	.	8E	.	.	.
2FF	e-	.	.	.	2C	.	2A	e-
=68	=68	=68	=68	=68	=68	=68	=68	=68
4GG	.	1G	.	.	4BB-y	.	2.B-y	.
*	*	*Xlig	*	*	*	*	*	*
4EE-i	.	.	.	.	2.E-X	-ley-	.	.
4.EE-i	-ley-	.	.	.	.	.	.	.
.	.	.	.	.	.	.	4G	.
8DD	.	.	.	.	.	.	.	.
=69	=69	=69	=69	=69	=69	=69	=69	=69
2FF	-son,	2F	.	.	2C	-son,	4A	.
.	.	.	.	.	.	.	4.c	.
*lig	*	*	*	*	*	*	*	*
2C	e-	2E	.	.	2c	.	.	.
.	.	.	.	.	.	.	8B-yL	.
.	.	.	.	.	.	.	8A	.
.	.	.	.	.	.	.	8GJ	.
=70	=70	=70	=70	=70	=70	=70	=70	=70
*	*	*lig	*	*	*	*	*	*
2D	.	2F	.	.	4r	.	4F	.
*Xlig	*	*	*	*	*	*	*	*
.	.	.	.	.	4.A	e-	4f	.
*lig	*	*	*	*	*	*	*	*
2AA	.	2A	.	.	.	.	4e	.
.	.	.	.	.	8B-y	.	.	.
.	.	.	.	.	4c	.	4c	.
=71	=71	=71	=71	=71	=71	=71	=71	=71
(2BB-y	.	1G	.	.	8B-yL	.	2d	.
*Xlig	*	*	*	*	*	*	*	*
.	.	.	.	.	8A	.	.	.
.	.	.	.	.	8G	.	.	.
.	.	.	.	.	8FJ	.	.	.
2C)	.	.	.	.	4.E	.	2e	.
.	.	.	.	.	8D	.	.	.
=72	=72	=72	=72	=72	=72	=72	=72	=72
!	!	!LO:N:vis=1	!	!	!	!	!	!
4FF	.	[y1F;	-ta.	-son.	2F	.	4c	.
*	*	*Xlig	*	*	*	*	*	*
4.BB-y	-ley-	.	.	.	.	.	2d	-ley-
.	.	.	.	.	2D	-ley-	.	.
8AA	.	.	.	.	.	.	.	.
4BB-y	.	.	.	.	.	.	8cL	.
.	.	.	.	.	.	.	8B-yJ	.
=73	=73	=73-	=73	=73	=73	=73	=73	=73
*	*	*	*	*	*	*	*	*Xedit
1FF;	-son.	1F]yy	.	.	1C;	-son.	1A;	-son.
!!LO:LB:g=original
=74||	=74||	=74||	=74||	=74||	=74||	=74||	=74||	=74||
*M3/2	*	*M3/2	*	*	*M3/2	*	*M3/2	*
*met(O)	*	*met(O)	*	*edit	*met(O)	*Xedit	*met(O)	*Xedit
*	*	*	*	*	*lig	*	*	*
*	*	*lig	*	*	*	*	*	*
1FF	Ky-	1.F	Gau-	Ky-	2F	Ky-	1c	Ky-
.	.	.	.	.	2A	.	.	.
*	*	*	*	*	*Xlig	*	*	*
2BB-y	-ri	.	.	.	2B-y	-ri	2d	-ri-
=75	=75	=75	=75	=75	=75	=75	=75	=75
*lig	*	*	*	*	*	*	*	*
2AA	e	1A	.	.	4.c	e	2c	-e
*	*	*Xlig	*	*	*	*	*	*
.	.	.	.	.	8B-y	.	.	.
1D	.	.	.	.	8AL	.	4d	.
.	.	.	.	.	8GJ	.	.	.
.	.	.	.	.	4.F	.	2f	.
.	.	2B-y	.	-ri-	.	.	.	.
.	.	.	.	.	8E	.	.	.
.	.	.	.	.	4F	.	8eL	.
.	.	.	.	.	.	.	8dJ	.
=76	=76	=76	=76	=76	=76	=76	=76	=76
*	*	*	*	*	*lig	*	*	*
1C	.	1c	-de	-e	1.G	.	2e	e-
*Xlig	*	*	*	*	*	*	*	*
.	.	.	.	.	.	.	4f	.
.	.	.	.	.	.	.	4.g	.
2E-X	e-	2B-y	glo-	.	.	.	.	.
.	.	.	.	.	.	.	8fL	.
.	.	.	.	.	.	.	8e-i	.
.	.	.	.	.	.	.	8dJ	.
=77	=77	=77	=77	=77	=77	=77	=77	=77
2F	.	2A	.	.	1c	.	4c	.
*	*	*	*	*	*Xlig	*	*	*
.	.	.	.	.	.	.	2f	.
1C	-ley-	1G	-ri-	.	.	.	.	.
.	.	.	.	.	.	.	4e	.
*	*	*	*	*	*	*	*	*edit
.	.	.	.	.	4r	.	4.e	-ley-
.	.	.	.	.	4c	e-	.	.
.	.	.	.	.	.	.	8d	.
!!LO:LB:g=original
=78	=78	=78	=78	=78	=78	=78	=78	=78
*	*	*lig	*	*	*	*	*	*
*	*	*col	*	*	*	*edit	*	*
4.D	-son,	[1.F	-o-	e-	4.A	.	2f	-son,
8C	.	.	.	.	8B-y	.	.	.
4AA	.	.	.	.	8cL	.	4r	.
.	.	.	.	.	8B-y	.	.	.
4FF	e-	.	.	.	8A	.	4c	e-
.	.	.	.	.	8GJ	.	.	.
4.BB-y	.	.	.	.	4F	.	4.d	.
.	.	.	.	.	4B-y	-ley-	.	.
8AA	.	.	.	.	.	.	8c	.
=79	=79	=79	=79	=79	=79	=79	=79	=79
4FF	.	2F]	.	.	4c	.	4.A	.
2F	-ley-	.	.	.	4A	.	.	.
.	.	.	.	.	.	.	8F	.
.	.	1G	.	.	2G	-son,	2.B-y	-ley-
*	*	*Xcol	*	*	*	*	*	*
*	*	*Xlig	*	*	*	*	*	*
4E	.	.	.	.	.	.	.	.
4.E	.	.	.	.	2r	.	.	.
.	.	.	.	.	.	.	8AL	.
8D	.	.	.	.	.	.	8GJ	.
=80	=80	=80	=80	=80	=80	=80	=80	=80
*	*	*lig	*	*	*	*	*	*
2F	-son,	2A	-sa	.	2%3r	.	4F	-son,
*	*	*	*	*	*	*	*	*Xedit
.	.	.	.	.	.	.	4.f	e-
4.FF	e-	2F	.	.	.	.	.	.
*	*	*Xlig	*	*	*	*	*	*
.	.	.	.	.	.	.	8e	.
.	.	.	.	.	.	.	4d	.
8GG	.	.	.	.	.	.	.	.
4AA	.	2F	su-	-ley-	.	.	4c	.
[4BB-y	-ley-	.	.	.	.	.	[4d	.
=81	=81	=81	=81	=81	=81	=81	=81	=81
8BB-]L	.	2D	-per	.	2r	.	8d]L	.
8AAJ	.	.	.	.	.	.	8c	.
4BB-y	.	.	.	.	.	.	8B-y	.
.	.	.	.	.	.	.	8AJ	.
*lig	*	*	*	*	*	*	*	*
2C	-son,	4E	.	.	1G	e-	4G	.
*	*	*	*	*	*	*	*	*edit
.	.	4C	.	.	.	.	2c	-ley-
2GG	.	2D	.	-son,	.	.	.	.
*Xlig	*	*	*	*	*	*	*	*
.	.	.	.	.	.	.	4Bni	.
!!LO:LB:g=original
=82	=82	=82	=82	=82	=82	=82	=82	=82
4r	.	1C	om-	e-	4G	.	2c	-son,
4C	e-	.	.	.	2.A	.	.	.
4AA	.	.	.	.	.	.	2r	.
4FF	.	.	.	.	.	.	.	.
*	*	*	*	*	*	*	*	*Xedit
[2BB-y	.	[2D	.	.	4F	.	[2f	e,
.	.	.	.	.	[4B-y	.	.	.
=83	=83	=83	=83	=83	=83	=83	=83	=83
4BB-]	.	2D]	.	.	2B-]	.	4f]	.
4GG	.	.	.	.	.	.	4.g	.
2.C	.	1E	.	.	4G	.	.	.
.	.	.	.	.	.	.	8fL	.
.	.	.	.	.	2.c	.	8e	.
.	.	.	.	.	.	.	8dJ	.
.	.	.	.	.	.	.	2c	.
4AA	.	.	.	.	.	.	.	.
=84	=84	=84	=84	=84	=84	=84	=84	=84
4.D	-ley-	2F	.	-ley-	4A	.	4r	.
*	*	*	*	*	*	*	*	*edit
.	.	.	.	.	2F	-ley-	4d	e-
8E	.	.	.	.	.	.	.	.
4F	.	4A	.	.	.	.	4c	.
4BB-y	.	4B-y	.	.	8EL	.	2f	-ley-
.	.	.	.	.	8DJ	.	.	.
2C	-son,	2G	.	.	4C	-son,	.	.
*	*	*	*	*	*	*Xedit	*	*
.	.	.	.	.	4c	e-	4e	.
=85	=85	=85	=85	=85	=85	=85	=85	=85
4.D	e-	1F	-nes	-son,	4A	.	2f	-son,
.	.	.	.	.	4B-y	.	.	.
8C	.	.	.	.	.	.	.	.
4AA	.	.	.	.	4c	.	4r	.
*	*	*	*	*	*	*	*	*Xedit
2BB-y	.	.	.	.	2d	.	4f	e-
.	.	2r	.	.	.	.	2g	.
4C	.	.	.	.	[4c	.	.	.
=86	=86	=86	=86	=86	=86	=86	=86	=86
2AA	.	2F	spe-	e-	2c]	.	2a	.
2GG	.	2G	.	.	4B-y	.	2b-y	.
.	.	.	.	.	4G	.	.	.
4FF	.	2A	-ci-	.	4c	.	4a	.
[4F	-ley-	.	.	.	4A	.	4f	.
!!LO:PB:g=original
=87	=87	=87	=87	=87	=87	=87	=87	=87
*	*	*	*	*	*	*edit	*	*edit
4F]	.	2B-y	-o-	.	2G	-ley-	2g	-ley-
4E	.	.	.	.	.	.	.	.
2F	-son,	4A	.	.	2F	-son,	2c	-son,
.	.	4F	.	.	.	.	.	.
2r	.	2G	.	-ley-	2B-y	e-	4r	.
.	.	.	.	.	.	.	4B-y	e-
=88	=88	=88	=88	=88	=88	=88	=88	=88
1r	.	2F	-sa,	-son,	4A	.	4c	.
.	.	.	.	.	4F	.	4.d	-ley-
.	.	2r	.	.	2G	.	.	.
.	.	.	.	.	.	.	8c	.
.	.	.	.	.	.	.	4B-y	.
4.FF	e-	[2F	va-	e-	4F	.	2A	-son,
.	.	.	.	.	[4A	.	.	.
8GG	.	.	.	.	.	.	.	.
=89	=89	=89	=89	=89	=89	=89	=89	=89
4AA	.	4F]	.	.	4A]	.	1.r	.
4BB-y	.	2.G	.	.	4G	.	.	.
2C	-ley-	.	.	.	2E	-ley-	.	.
4FF	-son,	[2A	.	.	2F	-son,	.	.
*	*Xedit	*	*	*	*	*	*	*
[4F	e-	.	.	.	.	.	.	.
=90	=90	=90	=90	=90	=90	=90	=90	=90
4F]	.	4A]	.	.	2r	.	2r	.
4.D	.	2B-y	-le	-ley-	.	.	.	.
.	.	.	.	.	2r	.	2r	.
8C	.	.	.	.	.	.	.	.
4AA	.	2A	.	.	.	.	.	.
*	*edit	*	*	*	*	*Xedit	*	*Xedit
2BB-y	-ley-	.	.	.	2B-y	e-	4.d	e-
.	.	4G	.	.	.	.	.	.
.	.	.	.	.	.	.	8B-y	.
!!LO:LB:g=original
=91	=91	=91	=91	=91	=91	=91	=91	=91
2FF	-son,	1A	.	-son,	4A	.	4.c	.
.	.	.	.	.	2c	.	.	.
.	.	.	.	.	.	.	8d	.
4C-y	e-	.	.	.	.	.	4e	.
4D	.	.	.	.	4F	.	4f	.
4C-y	.	[2c	val-	e-	4G	.	4e	.
[4F	.	.	.	.	[4A	.	[4a	.
=92	=92	=92	=92	=92	=92	=92	=92	=92
4F]	.	4c]	.	.	4A]	.	4a]	.
*	*	*	*	*	*	*	*lig	*
4G	.	2B-y	.	.	4B-y	.	2g	.
4E	.	.	.	.	4G	.	.	.
4F	.	4A	.	.	2.c	.	2f	.
*	*	*	*	*	*	*	*Xlig	*
2C	.	2G	-de	.	.	.	.	.
.	.	.	.	.	.	.	4e	.
=93	=93	=93	=93	=93	=93	=93	=93	=93
*	*	*	*	*	*	*	*	*edit
*lig	*Xedit	*	*	*	*	*	*	*
2D	-ley-	1F	de-	-ley-	2A	.	1f	-ley-
1BB-y	.	.	.	.	4B-y	.	.	.
*Xlig	*	*	*	*	*	*	*	*
*	*	*	*	*	*	*edit	*	*
.	.	.	.	.	4.d	-ley-	.	.
.	.	2G	-co-	.	.	.	2d	.
.	.	.	.	.	8c	.	.	.
.	.	.	.	.	4B-y	.	.	.
=94	=94	=94	=94	=94	=94	=94	=94	=94
*	*edit	*	*	*	*	*	*	*
1.FF	-son,	2A	-ra	-son,	1A	-son,	1c	-son,
.	.	2r	.	.	.	.	.	.
.	.	2A	et	e-	[2c	e-	2r	.
=95	=95	=95	=95	=95	=95	=95	=95	=95
*	*	*lig	*	*	*	*	*	*
1.r	.	2G	pro	.	4c]	.	2r	.
.	.	.	.	.	4B-y	.	.	.
.	.	2A	.	.	4A	.	2r	.
*	*	*Xlig	*	*	*	*	*	*
.	.	.	.	.	4F	.	.	.
*	*	*	*	*	*	*	*	*Xedit
.	.	2B-y	no-	.	8GL	.	2d	e-
.	.	.	.	.	8F	.	.	.
.	.	.	.	.	8E	.	.	.
.	.	.	.	.	8DJ	.	.	.
!!LO:LB:g=original
=96	=96	=96	=96	=96	=96	=96	=96	=96
2r	.	4c	.	-ley-	4C	.	4e	.
.	.	4A	.	.	2F	-ley-	4f	.
2r	.	2G	-bis	.	.	.	2g	.
.	.	.	.	.	4E	.	.	.
2FF	e-	2F	.	-son,	2F	-son,	4c	.
.	.	.	.	.	.	.	[4d	.
=97	=97	=97	=97	=97	=97	=97	=97	=97
4BB-y	.	2G	sem-	e-	4.D	e-	8d]L	.
.	.	.	.	.	.	.	8cJ	.
4GG	.	.	.	.	.	.	4B-y	.
.	.	.	.	.	8E	.	.	.
4FF	.	4A	.	.	2F	.	4A	.
*	*	*	*	*	*	*	*	*edit
*	*	*	*	*	*	*	*lig	*
2BB-y	-ley-	2F	-per	.	.	.	2d	-ley-
.	.	.	.	.	4D	.	.	.
4C	.	4E	.	.	[4G	.	[4c	.
=98	=98	=98	=98	=98	=98	=98	=98	=98
2GG	-son,	2D	Chri-	.	2G]	.	4c]	.
*	*	*	*	*	*	*	*Xlig	*
.	.	.	.	.	.	.	4Bni	.
4AA	e-	4C	.	.	4c	.	2c	-son,
4FF	.	2F	-stum	.	4A	.	.	.
4BB-y	.	.	.	.	2B-y	.	4d	e-
4GG	.	4G	.	.	.	.	4e	.
=99	=99	=99	=99	=99	=99	=99	=99	=99
4FF	.	4A	ex-	.	4A	.	4f	.
*	*	*	*	*Xedit	*	*	*	*
2EE-X	.	2B-y	.	-ley-	2G	.	2g	.
*	*	*	*	*	*	*Xedit	*	*Xedit
4FF	.	4A	.	.	2.c	-ley-	2f	-ley-
*	*Xedit	*	*	*	*	*	*	*
2C	-ley-	2G	-o-	.	.	.	.	.
.	.	.	.	.	.	.	4e	.
=100	=100	=100	=100	=100	=100	=100	=100	=100
*	*	*	*	*	*^	*	*	*
0FFl	-son.	0Fl	-ra.	-son.	0cl/	0A\	-son.	0fl	-son.
*	*	*	*	*	*v	*v	*	*	*
==	==	==	==	==	==	==	==	==
*-	*-	*-	*-	*-	*-	*-	*-	*-
!!!system-decoration: [*]
!!!RDF**kern: j = editorial accidental, optional, paren up
!!!RDF**kern: i = editorial accidental
!!!RDF**kern: l = terminal breve
!!!PTL: Gaspar van Weerbeke: Collected Works. I. Masses, Part 1
!!!PPR: American Institute of Musicology
!!!PC#: Corpus Mensurabilis Musicae 106/I.1
!!!PDT: 2016
!!!PED: Pavanello, Agnese
!!!YEM: CC-BY-SA 4.0 (https://creativecommons.org/licenses/by-nc/4.0/legalcode)
!!!EED: Mair-Gruber, Roland
!!!EEV: 2021/07/29
!!!title: @{OPR} &mdash; @{OTL}
